!! 00049] TT[KA
!! NN
!!!OTL: Zhe shan meiyou na shan gao
!!!ARE: Asia, China,ÿSichuan, Naxi
!! Ethnic Group: Han
!! II, 211
!!!SCT: C0222
!!!YEM: Copyright 1995, estate of Helmut Schaffrath.
**kern
*ICvox
*Ivox
*M3/8
*k[]
*C:
{8dd
8gg
8ee
=1
8.dd
16ee
16dd
16cc
=2
4g
16a
16cc
=3
16a
16cc
8dd
16a
16cc
=4
4.dd}
=5
{8dd
8gg
8ee
=6
16dd
16gg
4ee
=7
16dd
16ee
8cc
8dd
=8
16dd
16cc
16a
[8.g
=9
4g]}
{16a
16g
=10
8a
8g
8dd
=11
8cc
8r}
{16cc
16a
=12
8dd
4ee
=13
8dd
8dd
16dd
16cc
=14
4.a}
=15
{16a
16cc
8dd
8a
=16
4cc
8r}
=17
{16a
16cc
8dd
8dd
=18
16cc
16a
[4g
=19
4.g]}
==
!!!AGN: Shange. Xin minge
!! Die Gattungsbezeichnung laesst das Tragen eines Korbs auf dem
!!    Ruecken erkennen. Dies war nur fuer sehr arme Leute typisch.
!!    Vereinzelt Verzierungen.
!!!ONB: ESAC (Essen Associative Code) Database: CHINA
!!!AMT: simple triple
!!!AIN: vox
!!!EED: Helmut Schaffrath
!!!EEV: 1.0
*-
!!!ONB: Tied note syntax fixed by Craig Sapp, 2004/05/03/
